symbols/web/piano/materialsymbolsoutlined/piano_wght700gradN25_48px.svg

<svg xmlns="http://www.w3.org/2000/svg" height="48" width="48"><path d="M9.55 43q-1.9 0-3.225-1.325Q5 40.35 5 38.45V9.55Q5 7.7 6.325 6.3T9.55 4.9h28.9q1.85 0 3.25 1.4t1.4 3.25v28.9q0 1.9-1.4 3.225Q40.3 43 38.45 43Zm0-4.55h6.85V28.7h-.8q-.8 0-1.25-.45-.45-.45-.45-1.25V9.55H9.55v28.9Zm22.1 0h6.8V9.55h-4.3V27q0 .8-.475 1.25-.475.45-1.275.45h-.75Zm-12.25 0h9.25V28.7h-.8q-.8 0-1.25-.45-.45-.45-.45-1.25V9.55H21.9v17.5q0 .7-.5 1.175-.5.475-1.25.475h-.75Z"/></svg>

<svg xmlns="http://www.w3.org/2000/svg" height="48" width="48"><path d="M9.55 43Q7.65 43 6.325 41.675Q5 40.35 5 38.45V9.55Q5 7.7 6.325 6.3Q7.65 4.9 9.55 4.9H38.45Q40.3 4.9 41.7 6.3Q43.1 7.7 43.1 9.55V38.45Q43.1 40.35 41.7 41.675Q40.3 43 38.45 43ZM9.55 38.45H16.4V28.7H15.6Q14.8 28.7 14.35 28.25Q13.9 27.8 13.9 27V9.55H9.55Q9.55 9.55 9.55 9.55Q9.55 9.55 9.55 9.55V38.45Q9.55 38.45 9.55 38.45Q9.55 38.45 9.55 38.45ZM31.65 38.45H38.45Q38.45 38.45 38.45 38.45Q38.45 38.45 38.45 38.45V9.55Q38.45 9.55 38.45 9.55Q38.45 9.55 38.45 9.55H34.15V27Q34.15 27.8 33.675 28.25Q33.2 28.7 32.4 28.7H31.65ZM19.4 38.45H28.65V28.7H27.85Q27.05 28.7 26.6 28.25Q26.15 27.8 26.15 27V9.55H21.9V27.05Q21.9 27.75 21.4 28.225Q20.9 28.7 20.15 28.7H19.4Z"/></svg>
